X:102
T:&quot;The Pretty Young Maid Milking Her Cow&quot;  (1st Setting)
S:O'Neill's Music Of Ireland (The 1850)
Q:1/4=70
M:3/4
L:1/8
K:C
&quot;_vb&quot;(AB)|(c2e2c2)|(B2d2B2)|(A2G4-|G4)(AB)|(c2e2c2)|(B2d2B2)|A6-|A4(AB)|
(c2e2c2)|.B2&quot;^>&quot;g2.B2|.A2G4-|G4(e3/2d/2)|(c2B2A2)|(E2A2B2)|A6-|A4||
(AB)|(c2d2e2)|(e2^f2^g2)|a2A4-|A4(AB)|c2d2(e{fe}d)|e2(a2{c'}b2)|a6-|a2(b3a)|
(g2e2d2)|.B2&quot;^>&quot;g2.B2|.A2G4-|G4(ed)|(c2B2A2)|(E2A2B2)|A6-|A4|]
